X: 17199
T: Henry Reed's Breakdown
R: reel
M: 4/4
K: Amixolydian
e/f/g|:a2g2 ed c2|A3 A3 e/f/g|a2g2 ed c2|e3 e3 e/f/g|
a2g2 ed c2|A3 A =cA=c2|E3 E GE G2|1 A3 A3 e/f/g:|2 A3 A3 B/c/d||
|:e2d2 cA c2|A3 A3 B/c/d|e2d2 =cA c2|E3 E3 B/c/d|
e2d2 cA c2|A3 A =cA c2|E3 E GE G2|1 A3 A3 B/c/d:|2 A3 A3 e/f/g||

